components/Common/Svg/svgs/review.svg

<svg width="40" height="40" viewBox="0 0 40 40" fill="none" xmlns="http://www.w3.org/2000/svg">
<path fill-rule="evenodd" clip-rule="evenodd" d="M7.34904 9.33443C8.21523 8.48178 9.39334 8 10.625 8H29.375C30.6067 8 31.7848 8.48178 32.651 9.33443C33.5166 10.1866 34 11.3389 34 12.5371V23.6113C34 24.8095 33.5166 25.9619 32.651 26.814C31.7848 27.6667 30.6067 28.1484 29.375 28.1484H12.5C12.3073 28.1484 12.1187 28.2041 11.9569 28.3088L6 32.1621V12.5371C6 11.3389 6.48339 10.1866 7.34904 9.33443ZM10.625 6C8.87298 6 7.1896 6.68497 5.94601 7.90913C4.70188 9.13382 4 10.7982 4 12.5371V34C4 34.3663 4.20029 34.7033 4.52206 34.8784C4.84383 35.0535 5.23557 35.0386 5.54314 34.8396L12.7952 30.1484H29.375C31.127 30.1484 32.8104 29.4635 34.054 28.2393C35.2981 27.0146 36 25.3502 36 23.6113V12.5371C36 10.7982 35.2981 9.13382 34.054 7.90913C32.8104 6.68497 31.127 6 29.375 6H10.625ZM20.9053 11.5751C20.7405 11.2241 20.3878 11 20 11C19.6123 11 19.2595 11.2241 19.0948 11.5751L17.4674 15.0426L13.8494 15.5939C13.4787 15.6504 13.1707 15.9096 13.0517 16.2652C12.9327 16.6208 13.0227 17.0131 13.2847 17.2814L15.936 19.9951L15.3089 23.839C15.2472 24.217 15.4068 24.5969 15.7199 24.8175C16.033 25.0381 16.4445 25.0604 16.7797 24.8752L20.0037 23.0927L23.2195 24.8747C23.5547 25.0604 23.9664 25.0383 24.2797 24.8178C24.5931 24.5973 24.7529 24.2171 24.6912 23.839L24.0641 19.9951L26.7153 17.2814C26.9774 17.0131 27.0673 16.6208 26.9483 16.2652C26.8293 15.9096 26.5214 15.6504 26.1507 15.5939L22.5327 15.0426L20.9053 11.5751ZM19.0511 16.3756L20 14.3537L20.949 16.3756C21.0907 16.6776 21.3737 16.889 21.7036 16.9393L23.923 17.2775L22.2805 18.9587C22.0586 19.1859 21.9577 19.5051 22.0089 19.8186L22.3853 22.1259L20.4889 21.0751C20.1877 20.9082 19.8218 20.908 19.5204 21.0746L17.6144 22.1284L17.9912 19.8186C18.0423 19.5051 17.9415 19.1859 17.7195 18.9587L16.0771 17.2775L18.2965 16.9393C18.6263 16.889 18.9093 16.6776 19.0511 16.3756Z" fill="#161616"/>
</svg>

<svg width="40" height="40" viewBox="0 0 40 40" fill="none" xmlns="http://www.w3.org/2000/svg"><path fill-rule="evenodd" clip-rule="evenodd" d="M7.349 9.334A4.67 4.67 0 0 1 10.625 8h18.75a4.67 4.67 0 0 1 3.276 1.334A4.494 4.494 0 0 1 34 12.537v11.074c0 1.198-.483 2.35-1.349 3.203a4.67 4.67 0 0 1-3.276 1.334H12.5a1 1 0 0 0-.543.16L6 32.163V12.537c0-1.198.483-2.35 1.349-3.203ZM10.625 6a6.67 6.67 0 0 0-4.679 1.91A6.494 6.494 0 0 0 4 12.536V34a1 1 0 0 0 1.543.84l7.252-4.692h16.58a6.67 6.67 0 0 0 4.679-1.909A6.494 6.494 0 0 0 36 23.611V12.537a6.494 6.494 0 0 0-1.946-4.628A6.67 6.67 0 0 0 29.375 6h-18.75Zm10.28 5.575a1 1 0 0 0-1.81 0l-1.628 3.468-3.618.55a1 1 0 0 0-.564 1.688l2.651 2.714-.627 3.844a1 1 0 0 0 1.47 1.036l3.225-1.782 3.215 1.782a1 1 0 0 0 1.472-1.036l-.627-3.844 2.651-2.714a1 1 0 0 0-.564-1.687l-3.618-.551-1.628-3.468Zm-1.854 4.8L20 14.355l.949 2.022a1 1 0 0 0 .755.563l2.219.338-1.642 1.682a1 1 0 0 0-.272.86l.376 2.307-1.896-1.05a1 1 0 0 0-.969-.001l-1.906 1.053.377-2.31a1 1 0 0 0-.271-.86l-1.643-1.68 2.22-.339a1 1 0 0 0 .754-.563Z" fill="#161616"/></svg>
